X: 9
T: I'll Fly Away
C:Albert E. Brumley
S:https://www.idahobluegrassassociation.org/beginner-jam/category/ill-fly-away
R:Bluegrass
M:4/4
L:1/8
K:C
"C"e4c4|G4c4|e2d2e2f2|e4d4|"F"c8-|c4A2A2|"C"G8|
w: Some glad morn-ing when this life is o'-er. I-'ll fly a-way
"C"e4c4|G4c4|e2d2e2f2|e8|"C"e8-|"G"e2-c2 d2d2|"C"c8|
w: To the home on God's cel-es-tial shore. I--'ll fly a-way
W: I'll fly away, fly away, oh glory, I'll fly away, in the morning
W: When I die, hallelujah by and by I'll fly away
W:
W: 2. When the shadows of this life have gone
W: Like a bird from prison bars has flown
W:
W: 3. Just a few more weary days and then
W: To a land where joys will never end

